icons/solid/heart.svg

<svg width="24" height="24" viewBox="0 0 24 24" fill="none" xmlns="http://www.w3.org/2000/svg">
<path fill-rule="evenodd" clip-rule="evenodd" d="M11.4001 4.78593C11.6183 4.99985 11.8194 5.22861 12 5.46635C12.1806 5.22861 12.3817 4.99985 12.5999 4.78593C13.6105 3.79513 15.1035 3 17 3C18.9259 3 20.2261 3.82487 21.0115 4.9157C21.7602 5.95554 22 7.17331 22 8C22 11.9238 19.4939 15.1729 17.1866 17.352C16.014 18.4595 14.8454 19.3355 13.9715 19.9343C13.5336 20.2343 13.1673 20.4664 12.9082 20.6248C12.7786 20.704 12.6756 20.7648 12.6038 20.8066C12.5678 20.8275 12.5396 20.8436 12.5198 20.8549L12.4963 20.8682L12.4893 20.8721L12.4856 20.8742L12 20C11.5144 20.8742 11.5133 20.8735 11.5129 20.8734L11.5107 20.8721L11.5037 20.8682L11.4802 20.8549C11.4604 20.8436 11.4322 20.8275 11.3962 20.8066C11.3244 20.7648 11.2214 20.704 11.0918 20.6248C10.8327 20.4664 10.4664 20.2343 10.0285 19.9343C9.15461 19.3355 7.98604 18.4595 6.81338 17.352C4.5061 15.1729 2 11.9238 2 8C2 7.17331 2.23978 5.95554 2.98847 4.9157C3.77386 3.82487 5.07408 3 7 3C8.89647 3 10.3895 3.79513 11.4001 4.78593ZM12 20C12.4856 20.8742 12.4853 20.8743 12.4856 20.8742C12.1836 21.0419 11.8164 21.0419 11.5144 20.8742L12 20Z" fill="currentColor"/>
</svg>

<svg width="24" height="24" fill="none" xmlns="http://www.w3.org/2000/svg"><path fill-rule="evenodd" clip-rule="evenodd" d="M11.4 4.786c.218.214.42.443.6.68A6.248 6.248 0 0117 3c1.926 0 3.226.825 4.012 1.916C21.76 5.956 22 7.173 22 8c0 3.924-2.506 7.173-4.813 9.352a26.816 26.816 0 01-4.279 3.273 16.592 16.592 0 01-.388.23l-.024.013-.007.004-.003.002L12 20c-.486.874-.487.873-.487.873h-.002l-.007-.005-.024-.013a12.398 12.398 0 01-.388-.23 26.822 26.822 0 01-4.278-3.273C4.505 15.172 2 11.924 2 8c0-.827.24-2.044.988-3.084C3.774 3.825 5.074 3 7 3c1.896 0 3.39.795 4.4 1.786zM12 20l.486.874a1 1 0 01-.972 0L12 20z" fill="currentColor"/></svg>
